X: 371
%
U:~=!turn!
T: The Marquis of Huntly
C:Marshall
O:Scotland
B:Keith Norman MacDonald : "The Skye collection of the best reels & strathspeys extant" : 1887
Z:Ralph Palmer
R:Strathspey
M:C
L:1/8
K:G aeolian
F | D<G~G>F D<GG>A | F>GA>B c/B/A/G/ F<A | D>G~G>F D<GG>g | f>c d/c/B/A/ B<GG :|
d | ~g>ab<g d<gb>g | a/g/f/d/ c>=e f>Aa<f | ~g>ab<g d<gb>g | b/a/g/f/ d<^f g/g/g g<d |
g>ab>g a<^fg>=e | f>dc<f c<Fc<A | F<GG>F D<G~G>g | f>c d/c/B/A/ B<GG |]


